assets/dude/Design–June.svg

<svg width="500" height="118" viewBox="0 0 500 118" fill="none" xmlns="http://www.w3.org/2000/svg">
<path d="M57.3827 9.02012H54.7227C46.6027 9.02012 39.7427 13.3601 38.0627 14.4801C37.6427 14.7601 37.3627 14.9001 37.0827 14.9001C36.8027 14.9001 36.6627 14.6201 36.6627 14.4801C36.6627 7.48011 30.7827 1.88012 23.7827 1.88012C16.7827 1.88012 10.9027 7.48011 10.9027 14.4801C10.9027 14.6201 10.7627 14.9001 10.4827 14.9001C10.2027 14.9001 9.78269 14.6201 9.5027 14.4801C6.70269 13.0801 4.3227 12.5201 1.5227 12.5201C0.822695 12.5201 0.262695 13.0801 0.262695 13.7801C0.262695 15.6001 2.3627 18.4001 2.3627 43.7401C2.3627 44.4401 2.9227 45.0001 3.6227 45.0001H17.4827C18.1827 45.0001 18.7427 45.5601 18.7427 46.2601V71.4601C18.7427 72.1601 18.1827 72.7201 17.4827 72.7201H3.6227C2.9227 72.7201 2.3627 73.2801 2.3627 73.9801C2.3627 99.3201 0.262695 102.12 0.262695 103.94C0.262695 104.64 0.822695 105.2 1.5227 105.2C4.3227 105.2 6.70269 104.64 9.5027 103.24C9.78269 103.1 10.2027 102.82 10.4827 102.82C10.7627 102.82 10.9027 103.1 10.9027 103.24C10.9027 110.24 16.7827 115.84 23.7827 115.84C30.7827 115.84 36.6627 110.24 36.6627 103.24C36.6627 103.1 36.8027 102.82 37.0827 102.82C37.3627 102.82 37.6427 102.96 38.0627 103.24C39.7427 104.36 46.6027 108.7 54.7227 108.7H57.3827C74.8827 108.7 86.2227 95.6801 86.2227 77.7601V39.9601C86.2227 22.0401 74.8827 9.02012 57.3827 9.02012ZM30.0827 72.7201C29.3827 72.7201 28.8227 72.1601 28.8227 71.4601V46.2601C28.8227 45.5601 29.3827 45.0001 30.0827 45.0001H67.3227C72.2227 45.0001 76.1427 48.9201 76.1427 53.8201V63.9001C76.1427 68.8001 72.2227 72.7201 67.3227 72.7201H30.0827Z" fill="#FF1C31"/>
<path d="M177.398 66.8401C177.398 66.1401 176.838 65.5801 176.138 65.5801H168.858C168.158 65.5801 167.598 66.1401 167.598 66.8401C167.598 70.3401 164.798 72.7201 161.298 72.7201H121.958C121.258 72.7201 120.698 72.1601 120.698 71.4601V63.9001C120.698 63.2001 121.258 62.6401 121.958 62.6401H133.718C134.418 62.6401 134.978 63.2001 134.978 63.9001V65.1601C134.978 65.8601 135.538 66.4201 136.238 66.4201H155.138C155.838 66.4201 156.398 65.8601 156.398 65.1601V52.5601C156.398 51.8601 155.838 51.3001 155.138 51.3001H136.238C135.538 51.3001 134.978 51.8601 134.978 52.5601V53.8201C134.978 54.5201 134.418 55.0801 133.718 55.0801H121.958C121.258 55.0801 120.698 54.5201 120.698 53.8201V46.2601C120.698 45.5601 121.258 45.0001 121.958 45.0001H161.298C164.798 45.0001 167.598 47.3801 167.598 50.8801C167.598 51.5801 168.158 52.1401 168.858 52.1401H176.138C176.838 52.1401 177.398 51.5801 177.398 50.8801V43.7401C177.398 18.4001 179.498 15.6001 179.498 13.7801C179.498 13.0801 178.938 12.5201 178.238 12.5201C172.078 12.5201 163.678 14.2001 158.358 17.4201C157.658 17.8401 156.818 18.4001 156.538 18.4001C156.258 18.4001 156.118 17.9801 156.118 17.9801C154.298 8.46012 145.898 1.18012 135.818 1.18012C125.738 1.18012 117.338 8.46012 115.518 17.9801C115.518 17.9801 115.378 18.4001 115.098 18.4001C114.818 18.4001 113.978 17.8401 113.278 17.4201C107.958 14.2001 99.5577 12.5201 93.3977 12.5201C92.6977 12.5201 92.1377 13.0801 92.1377 13.7801C92.1377 15.6001 94.2377 18.4001 94.2377 43.7401C94.2377 44.4401 94.7977 45.0001 95.4977 45.0001H109.358C110.058 45.0001 110.618 45.5601 110.618 46.2601V71.4601C110.618 72.1601 110.058 72.7201 109.358 72.7201H95.4977C94.7977 72.7201 94.2377 73.2801 94.2377 73.9801C94.2377 99.3201 92.1377 102.12 92.1377 103.94C92.1377 104.64 92.6977 105.2 93.3977 105.2C99.5577 105.2 107.958 103.52 113.278 100.3C113.978 99.8801 114.818 99.3201 115.098 99.3201C115.378 99.3201 115.518 99.7401 115.518 99.7401C117.338 109.26 125.738 116.54 135.818 116.54C145.898 116.54 154.298 109.26 156.118 99.7401C156.118 99.7401 156.258 99.3201 156.538 99.3201C156.818 99.3201 157.658 99.8801 158.358 100.3C163.678 103.52 172.078 105.2 178.238 105.2C178.938 105.2 179.498 104.64 179.498 103.94C179.498 102.12 177.398 99.3201 177.398 73.9801V66.8401Z" fill="#FF1C31"/>
<path d="M256.493 76.5001C256.493 42.4801 207.913 63.6201 207.913 48.5001C207.913 46.4001 210.013 44.7201 212.113 44.7201H236.893C240.393 44.7201 243.193 47.1001 243.193 50.6001C243.193 51.3001 243.753 51.8601 244.453 51.8601H251.733C252.433 51.8601 252.993 51.3001 252.993 50.6001V43.7401C252.993 18.4001 255.093 15.6001 255.093 13.7801C255.093 13.0801 254.533 12.5201 253.833 12.5201C251.033 12.5201 247.813 15.3201 245.573 17.5601C245.293 17.8401 244.873 18.2601 244.453 18.2601C244.033 18.2601 243.613 17.9801 243.193 16.7201C240.393 8.32012 233.393 0.620117 220.933 0.620117C208.473 0.620117 201.613 8.32012 198.813 16.7201C198.393 17.9801 197.973 18.2601 197.553 18.2601C197.133 18.2601 196.713 17.8401 196.433 17.5601C194.193 15.3201 190.973 12.5201 188.173 12.5201C187.473 12.5201 186.913 13.0801 186.913 13.7801C186.913 15.6001 188.873 15.8801 189.013 39.9601V41.2201C189.013 75.2401 237.593 53.9601 237.593 69.0801C237.593 71.1801 235.913 73.0001 233.813 73.0001H203.853C200.353 73.0001 197.553 70.6201 197.553 67.1201C197.553 66.4201 196.993 65.8601 196.293 65.8601H189.013C188.313 65.8601 187.753 66.4201 187.753 67.1201V75.3801C187.613 99.4601 185.653 102.12 185.653 103.94C185.653 104.64 186.213 105.2 186.913 105.2C189.713 105.2 192.933 102.4 195.173 100.16C195.453 99.8801 195.873 99.4601 196.293 99.4601C196.713 99.4601 197.133 99.7401 197.553 101C200.353 109.4 209.593 117.1 222.053 117.1C234.513 117.1 243.893 109.4 246.693 101C247.113 99.7401 247.533 99.4601 247.953 99.4601C248.373 99.4601 248.793 99.8801 249.073 100.16C251.313 102.4 254.533 105.2 257.333 105.2C258.033 105.2 258.593 104.64 258.593 103.94C258.593 102.12 256.493 101.84 256.493 76.5001Z" fill="#FF1C31"/>
<path d="M307.81 72.7201H293.95C293.25 72.7201 292.69 72.1601 292.69 71.4601V46.2601C292.69 45.5601 293.25 45.0001 293.95 45.0001H307.81C308.51 45.0001 309.07 44.4401 309.07 43.7401C309.07 18.4001 311.17 15.6001 311.17 13.7801C311.17 13.0801 310.61 12.5201 309.91 12.5201C307.11 12.5201 304.73 13.0801 301.93 14.4801C301.65 14.6201 301.23 14.9001 300.95 14.9001C300.67 14.9001 300.53 14.6201 300.53 14.4801C300.53 7.48011 294.65 1.88012 287.65 1.88012C280.65 1.88012 274.77 7.48011 274.77 14.4801C274.77 14.6201 274.63 14.9001 274.35 14.9001C274.07 14.9001 273.65 14.6201 273.37 14.4801C270.57 13.0801 268.19 12.5201 265.39 12.5201C264.69 12.5201 264.13 13.0801 264.13 13.7801C264.13 15.6001 266.23 18.4001 266.23 43.7401C266.23 44.4401 266.79 45.0001 267.49 45.0001H281.35C282.05 45.0001 282.61 45.5601 282.61 46.2601V71.4601C282.61 72.1601 282.05 72.7201 281.35 72.7201H267.49C266.79 72.7201 266.23 73.2801 266.23 73.9801C266.23 99.3201 264.13 102.12 264.13 103.94C264.13 104.64 264.69 105.2 265.39 105.2C268.19 105.2 270.57 104.64 273.37 103.24C273.65 103.1 274.07 102.82 274.35 102.82C274.63 102.82 274.77 103.1 274.77 103.24C274.77 110.24 280.65 115.84 287.65 115.84C294.65 115.84 300.53 110.24 300.53 103.24C300.53 103.1 300.67 102.82 300.95 102.82C301.23 102.82 301.65 103.1 301.93 103.24C304.73 104.64 307.11 105.2 309.91 105.2C310.61 105.2 311.17 104.64 311.17 103.94C311.17 102.12 309.07 99.3201 309.07 73.9801C309.07 73.2801 308.51 72.7201 307.81 72.7201Z" fill="#FF1C31"/>
<path d="M391.38 57.4601C391.38 56.7601 390.82 56.2001 390.12 56.2001H366.18C365.48 56.2001 364.92 56.7601 364.92 57.4601V62.5001C364.92 63.2001 365.48 63.7601 366.18 63.7601H380.04C380.74 63.7601 381.3 64.3201 381.3 65.0201V67.1201C381.3 70.6201 378.5 73.0001 375 73.0001H339.58C333.42 73.0001 328.38 67.9601 328.38 61.8001V55.9201C328.38 49.7601 333.42 44.7201 339.58 44.7201H375.28C378.78 44.7201 381.58 47.1001 381.58 50.6001C381.58 51.3001 382.14 51.8601 382.84 51.8601H390.12C390.82 51.8601 391.38 51.3001 391.38 50.6001V43.7401C391.38 18.4001 393.48 15.6001 393.48 13.7801C393.48 13.0801 392.92 12.5201 392.22 12.5201C389.42 12.5201 386.2 15.3201 383.96 17.5601C383.68 17.8401 383.26 18.2601 382.84 18.2601C382.42 18.2601 382 17.9801 381.58 16.7201C378.78 8.32012 367.72 0.620117 355.26 0.620117C342.8 0.620117 331.74 8.32012 328.94 16.7201C328.52 17.9801 328.1 18.2601 327.68 18.2601C327.26 18.2601 326.84 17.8401 326.56 17.5601C324.32 15.3201 321.1 12.5201 318.3 12.5201C317.6 12.5201 317.04 13.0801 317.04 13.7801C317.04 15.6001 319.14 18.4001 319.14 43.7401V73.9801C319.14 99.3201 317.04 102.12 317.04 103.94C317.04 104.64 317.6 105.2 318.3 105.2C321.1 105.2 324.32 102.4 326.56 100.16C326.84 99.8801 327.26 99.4601 327.68 99.4601C328.1 99.4601 328.52 99.7401 328.94 101C331.74 109.4 342.8 117.1 355.26 117.1C367.72 117.1 378.78 109.4 381.58 101C382 99.7401 382.42 99.4601 382.84 99.4601C383.26 99.4601 383.68 99.8801 383.96 100.16C386.2 102.4 389.42 105.2 392.22 105.2C392.92 105.2 393.48 104.64 393.48 103.94C393.48 102.12 391.38 99.3201 391.38 73.9801V57.4601Z" fill="#FF1C31"/>
<path d="M409.565 102.82C409.845 102.82 409.985 103.1 409.985 103.24C409.985 110.24 415.865 115.84 422.865 115.84C429.865 115.84 435.745 110.24 435.745 103.24C435.745 103.1 435.885 102.82 436.165 102.82C436.445 102.82 436.865 103.1 437.145 103.24C439.945 104.64 442.325 105.2 445.125 105.2C445.825 105.2 446.385 104.64 446.385 103.94C446.385 102.12 444.285 99.3201 444.285 73.9801C444.285 73.2801 443.725 72.7201 443.025 72.7201H429.165C428.465 72.7201 427.905 72.1601 427.905 71.4601V47.1001C427.905 46.5401 428.185 46.2601 428.465 46.2601C429.165 46.2601 429.865 47.3801 429.865 47.3801L471.725 105.9C472.565 107.16 474.105 108 475.785 108C478.585 108 480.825 105.76 480.825 102.96V46.2601C480.825 45.5601 481.385 45.0001 482.085 45.0001H495.945C496.645 45.0001 497.205 44.4401 497.205 43.7401C497.205 18.4001 499.305 15.6001 499.305 13.7801C499.305 13.0801 498.745 12.5201 498.045 12.5201C495.245 12.5201 492.865 13.0801 490.065 14.4801C489.785 14.6201 489.365 14.9001 489.085 14.9001C488.805 14.9001 488.665 14.6201 488.665 14.4801C488.665 7.48011 482.785 1.88012 475.785 1.88012C468.785 1.88012 462.905 7.48011 462.905 14.4801C462.905 14.6201 462.765 14.9001 462.485 14.9001C462.205 14.9001 461.785 14.6201 461.505 14.4801C458.705 13.0801 456.325 12.5201 453.525 12.5201C452.825 12.5201 452.265 13.0801 452.265 13.7801C452.265 15.6001 454.365 18.4001 454.365 43.7401C454.365 44.4401 454.925 45.0001 455.625 45.0001H469.485C470.185 45.0001 470.745 45.5601 470.745 46.2601V71.4601C470.745 72.1601 470.185 72.7201 469.485 72.7201H461.645C460.525 72.7201 459.965 72.1601 459.965 72.1601L442.045 46.9601C442.045 46.9601 441.485 46.1201 441.485 45.5601C441.485 45.2801 441.625 45.0001 442.325 45.0001H443.025C443.725 45.0001 444.285 44.4401 444.285 43.7401C444.285 18.4001 446.385 15.6001 446.385 13.7801C446.385 13.0801 445.825 12.5201 445.125 12.5201C442.325 12.5201 439.945 13.0801 437.145 14.4801C436.865 14.6201 436.445 14.9001 436.165 14.9001C435.885 14.9001 435.745 14.6201 435.745 14.4801C435.745 7.48011 429.865 1.88012 422.865 1.88012C415.865 1.88012 409.985 7.48011 409.985 14.4801C409.985 14.6201 409.845 14.9001 409.565 14.9001C409.285 14.9001 408.865 14.6201 408.585 14.4801C405.785 13.0801 403.405 12.5201 400.605 12.5201C399.905 12.5201 399.345 13.0801 399.345 13.7801C399.345 15.6001 401.445 18.4001 401.445 43.7401C401.445 44.4401 402.005 45.0001 402.705 45.0001H416.565C417.265 45.0001 417.825 45.5601 417.825 46.2601V71.4601C417.825 72.1601 417.265 72.7201 416.565 72.7201H402.705C402.005 72.7201 401.445 73.2801 401.445 73.9801C401.445 99.3201 399.345 102.12 399.345 103.94C399.345 104.64 399.905 105.2 400.605 105.2C403.405 105.2 405.785 104.64 408.585 103.24C408.865 103.1 409.285 102.82 409.565 102.82Z" fill="#FF1C31"/>
</svg>

<svg xmlns="http://www.w3.org/2000/svg" fill="none" viewBox="0 0 500 118"><path fill="#FF1C31" d="M57.383 9.02h-2.66c-8.12 0-14.98 4.34-16.66 5.46-.42.28-.7.42-.98.42s-.42-.28-.42-.42c0-7-5.88-12.6-12.88-12.6-7 0-12.88 5.6-12.88 12.6 0 .14-.14.42-.42.42-.28 0-.7-.28-.98-.42-2.8-1.4-5.18-1.96-7.98-1.96-.7 0-1.26.56-1.26 1.26 0 1.82 2.1 4.62 2.1 29.96 0 .7.56 1.26 1.26 1.26h13.86c.7 0 1.26.56 1.26 1.26v25.2c0 .7-.56 1.26-1.26 1.26H3.623c-.7 0-1.26.56-1.26 1.26 0 25.34-2.1 28.14-2.1 29.96 0 .7.56 1.26 1.26 1.26 2.8 0 5.18-.56 7.98-1.96.28-.14.7-.42.98-.42s.42.28.42.42c0 7 5.88 12.6 12.88 12.6 7 0 12.88-5.6 12.88-12.6 0-.14.14-.42.42-.42.28 0 .56.14.98.42 1.68 1.12 8.54 5.46 16.66 5.46h2.66c17.5 0 28.84-13.02 28.84-30.94v-37.8c0-17.92-11.34-30.94-28.84-30.94zm-27.3 63.7c-.7 0-1.26-.56-1.26-1.26v-25.2c0-.7.56-1.26 1.26-1.26h37.24c4.9 0 8.82 3.92 8.82 8.82V63.9c0 4.9-3.92 8.82-8.82 8.82h-37.24zM177.398 66.84c0-.7-.56-1.26-1.26-1.26h-7.28c-.7 0-1.26.56-1.26 1.26 0 3.5-2.8 5.88-6.3 5.88h-39.34c-.7 0-1.26-.56-1.26-1.26V63.9c0-.7.56-1.26 1.26-1.26h11.76c.7 0 1.26.56 1.26 1.26v1.26c0 .7.56 1.26 1.26 1.26h18.9c.7 0 1.26-.56 1.26-1.26v-12.6c0-.7-.56-1.26-1.26-1.26h-18.9c-.7 0-1.26.56-1.26 1.26v1.26c0 .7-.56 1.26-1.26 1.26h-11.76c-.7 0-1.26-.56-1.26-1.26v-7.56c0-.7.56-1.26 1.26-1.26h39.34c3.5 0 6.3 2.38 6.3 5.88 0 .7.56 1.26 1.26 1.26h7.28c.7 0 1.26-.56 1.26-1.26v-7.14c0-25.34 2.1-28.14 2.1-29.96 0-.7-.56-1.26-1.26-1.26-6.16 0-14.56 1.68-19.88 4.9-.7.42-1.54.98-1.82.98s-.42-.42-.42-.42c-1.82-9.52-10.22-16.8-20.3-16.8s-18.48 7.28-20.3 16.8c0 0-.14.42-.42.42-.28 0-1.12-.56-1.82-.98-5.32-3.22-13.72-4.9-19.88-4.9-.7 0-1.26.56-1.26 1.26 0 1.82 2.1 4.62 2.1 29.96 0 .7.56 1.26 1.26 1.26h13.86c.7 0 1.26.56 1.26 1.26v25.2c0 .7-.56 1.26-1.26 1.26h-13.86c-.7 0-1.26.56-1.26 1.26 0 25.34-2.1 28.14-2.1 29.96 0 .7.56 1.26 1.26 1.26 6.16 0 14.56-1.68 19.88-4.9.7-.42 1.54-.98 1.82-.98s.42.42.42.42c1.82 9.52 10.22 16.8 20.3 16.8s18.48-7.28 20.3-16.8c0 0 .14-.42.42-.42.28 0 1.12.56 1.82.98 5.32 3.22 13.72 4.9 19.88 4.9.7 0 1.26-.56 1.26-1.26 0-1.82-2.1-4.62-2.1-29.96v-7.14zM256.493 76.5c0-34.02-48.58-12.88-48.58-28 0-2.1 2.1-3.78 4.2-3.78h24.78c3.5 0 6.3 2.38 6.3 5.88 0 .7.56 1.26 1.26 1.26h7.28c.7 0 1.26-.56 1.26-1.26v-6.86c0-25.34 2.1-28.14 2.1-29.96 0-.7-.56-1.26-1.26-1.26-2.8 0-6.02 2.8-8.26 5.04-.28.28-.7.7-1.12.7-.42 0-.84-.28-1.26-1.54-2.8-8.4-9.8-16.1-22.26-16.1s-19.32 7.7-22.12 16.1c-.42 1.26-.84 1.54-1.26 1.54-.42 0-.84-.42-1.12-.7-2.24-2.24-5.46-5.04-8.26-5.04-.7 0-1.26.56-1.26 1.26 0 1.82 1.96 2.1 2.1 26.18v1.26c0 34.02 48.58 12.74 48.58 27.86 0 2.1-1.68 3.92-3.78 3.92h-29.96c-3.5 0-6.3-2.38-6.3-5.88 0-.7-.56-1.26-1.26-1.26h-7.28c-.7 0-1.26.56-1.26 1.26v8.26c-.14 24.08-2.1 26.74-2.1 28.56 0 .7.56 1.26 1.26 1.26 2.8 0 6.02-2.8 8.26-5.04.28-.28.7-.7 1.12-.7.42 0 .84.28 1.26 1.54 2.8 8.4 12.04 16.1 24.5 16.1s21.84-7.7 24.64-16.1c.42-1.26.84-1.54 1.26-1.54.42 0 .84.42 1.12.7 2.24 2.24 5.46 5.04 8.26 5.04.7 0 1.26-.56 1.26-1.26 0-1.82-2.1-2.1-2.1-27.44zM307.81 72.72h-13.86c-.7 0-1.26-.56-1.26-1.26v-25.2c0-.7.56-1.26 1.26-1.26h13.86c.7 0 1.26-.56 1.26-1.26 0-25.34 2.1-28.14 2.1-29.96 0-.7-.56-1.26-1.26-1.26-2.8 0-5.18.56-7.98 1.96-.28.14-.7.42-.98.42s-.42-.28-.42-.42c0-7-5.88-12.6-12.88-12.6-7 0-12.88 5.6-12.88 12.6 0 .14-.14.42-.42.42-.28 0-.7-.28-.98-.42-2.8-1.4-5.18-1.96-7.98-1.96-.7 0-1.26.56-1.26 1.26 0 1.82 2.1 4.62 2.1 29.96 0 .7.56 1.26 1.26 1.26h13.86c.7 0 1.26.56 1.26 1.26v25.2c0 .7-.56 1.26-1.26 1.26h-13.86c-.7 0-1.26.56-1.26 1.26 0 25.34-2.1 28.14-2.1 29.96 0 .7.56 1.26 1.26 1.26 2.8 0 5.18-.56 7.98-1.96.28-.14.7-.42.98-.42s.42.28.42.42c0 7 5.88 12.6 12.88 12.6 7 0 12.88-5.6 12.88-12.6 0-.14.14-.42.42-.42.28 0 .7.28.98.42 2.8 1.4 5.18 1.96 7.98 1.96.7 0 1.26-.56 1.26-1.26 0-1.82-2.1-4.62-2.1-29.96 0-.7-.56-1.26-1.26-1.26zM391.38 57.46c0-.7-.56-1.26-1.26-1.26h-23.94c-.7 0-1.26.56-1.26 1.26v5.04c0 .7.56 1.26 1.26 1.26h13.86c.7 0 1.26.56 1.26 1.26v2.1c0 3.5-2.8 5.88-6.3 5.88h-35.42c-6.16 0-11.2-5.04-11.2-11.2v-5.88c0-6.16 5.04-11.2 11.2-11.2h35.7c3.5 0 6.3 2.38 6.3 5.88 0 .7.56 1.26 1.26 1.26h7.28c.7 0 1.26-.56 1.26-1.26v-6.86c0-25.34 2.1-28.14 2.1-29.96 0-.7-.56-1.26-1.26-1.26-2.8 0-6.02 2.8-8.26 5.04-.28.28-.7.7-1.12.7-.42 0-.84-.28-1.26-1.54-2.8-8.4-13.86-16.1-26.32-16.1s-23.52 7.7-26.32 16.1c-.42 1.26-.84 1.54-1.26 1.54-.42 0-.84-.42-1.12-.7-2.24-2.24-5.46-5.04-8.26-5.04-.7 0-1.26.56-1.26 1.26 0 1.82 2.1 4.62 2.1 29.96v30.24c0 25.34-2.1 28.14-2.1 29.96 0 .7.56 1.26 1.26 1.26 2.8 0 6.02-2.8 8.26-5.04.28-.28.7-.7 1.12-.7.42 0 .84.28 1.26 1.54 2.8 8.4 13.86 16.1 26.32 16.1s23.52-7.7 26.32-16.1c.42-1.26.84-1.54 1.26-1.54.42 0 .84.42 1.12.7 2.24 2.24 5.46 5.04 8.26 5.04.7 0 1.26-.56 1.26-1.26 0-1.82-2.1-4.62-2.1-29.96V57.46zM409.565 102.82c.28 0 .42.28.42.42 0 7 5.88 12.6 12.88 12.6 7 0 12.88-5.6 12.88-12.6 0-.14.14-.42.42-.42.28 0 .7.28.98.42 2.8 1.4 5.18 1.96 7.98 1.96.7 0 1.26-.56 1.26-1.26 0-1.82-2.1-4.62-2.1-29.96 0-.7-.56-1.26-1.26-1.26h-13.86c-.7 0-1.26-.56-1.26-1.26V47.1c0-.56.28-.84.56-.84.7 0 1.4 1.12 1.4 1.12l41.86 58.52c.84 1.26 2.38 2.1 4.06 2.1 2.8 0 5.04-2.24 5.04-5.04v-56.7c0-.7.56-1.26 1.26-1.26h13.86c.7 0 1.26-.56 1.26-1.26 0-25.34 2.1-28.14 2.1-29.96 0-.7-.56-1.26-1.26-1.26-2.8 0-5.18.56-7.98 1.96-.28.14-.7.42-.98.42s-.42-.28-.42-.42c0-7-5.88-12.6-12.88-12.6-7 0-12.88 5.6-12.88 12.6 0 .14-.14.42-.42.42-.28 0-.7-.28-.98-.42-2.8-1.4-5.18-1.96-7.98-1.96-.7 0-1.26.56-1.26 1.26 0 1.82 2.1 4.62 2.1 29.96 0 .7.56 1.26 1.26 1.26h13.86c.7 0 1.26.56 1.26 1.26v25.2c0 .7-.56 1.26-1.26 1.26h-7.84c-1.12 0-1.68-.56-1.68-.56l-17.92-25.2s-.56-.84-.56-1.4c0-.28.14-.56.84-.56h.7c.7 0 1.26-.56 1.26-1.26 0-25.34 2.1-28.14 2.1-29.96 0-.7-.56-1.26-1.26-1.26-2.8 0-5.18.56-7.98 1.96-.28.14-.7.42-.98.42s-.42-.28-.42-.42c0-7-5.88-12.6-12.88-12.6-7 0-12.88 5.6-12.88 12.6 0 .14-.14.42-.42.42-.28 0-.7-.28-.98-.42-2.8-1.4-5.18-1.96-7.98-1.96-.7 0-1.26.56-1.26 1.26 0 1.82 2.1 4.62 2.1 29.96 0 .7.56 1.26 1.26 1.26h13.86c.7 0 1.26.56 1.26 1.26v25.2c0 .7-.56 1.26-1.26 1.26h-13.86c-.7 0-1.26.56-1.26 1.26 0 25.34-2.1 28.14-2.1 29.96 0 .7.56 1.26 1.26 1.26 2.8 0 5.18-.56 7.98-1.96.28-.14.7-.42.98-.42z"/></svg>
